X:277
T:Gånglåt efter Karl Styfberg
O:Uppsala, Uppland
B:Spela nyckelharpa 3, nr 33
R:Marsch
Z:Nils L
M: 2/4
L: 1/16
K: C
u(Gc) |: ve2c2 (cB)cd | uc4 G2(Bd) | vf2B2 (d^c)de | ud4 G2(ce) |
g2 ((3ege) c2(de) | f2 ((3dfd) B2(GB) | d2c2 (cB)cd | c2G2 (CE)Gc |
e2c2 (cB)cd | c4 G2(Bd) | f2B2 (d^c)de | d4 G2ce |
g2 ((3ege) c2(de) | f2 ((3dfd) B2(GB) | d2c2 (Bc)(dB) | c4 z2c2 ::
a2f2 (fe)fg | f4 e2(ce) | g2c2 (e^d)ef | e4 G2(Bd) |
f2 ((3efe) d2c2 | B2G2A2B2 | c2(Gc) e2(ce) | g2g2 (fe)(fg) |
a2f2 (fe)fg | f4 e2(ce) | g2c2 (e^d)ef | e4 G2(Bd) |
f2 ((3efe) d2c2 | B2G2A2B2 | c2BA (GB)dB | c6c2 :|
(:musicend:)
(:music:)
